X: 1
T: the Crested Hen(s)
T: les Poules Hupp\'ees
M: 3/4
L: 1/8
R: waltz, bourr\'ee
K: Edor
   GFD | E3  G FE | B4 Bc | dc Be dc | dc BA GF | E3  G FE | B4 Bc | dc BA GA | B3 :|
|: zef | gB Bg gB |=c4 ef | gf ag fe |^d2 e2 f2 | gB Bg gB |=c4 ef | gf ag fd | e3 :|
